X: 2
T:Shooting, Hinton
M:9/8
L:1/8
A:Hinton
P:A(A2B3A2)3A2
K:G
P:A
G2G BAG Bcd|AAA A2B c3 |edc BAG BdB|GAB c2A G3||
P:B
d2c BAG Bd2|A2B A2B c3 |edc BAG BdB|GAB c2A G3||
